priv/static/svgs/icons_new/sport-ice-hockey.svg

<svg width="32" height="32" viewBox="0 0 32 32" fill="none" xmlns="http://www.w3.org/2000/svg">
<path d="M24.4377 5C23.1085 7.82451 19.4911 14.9158 19.0951 15.702C18.5154 16.8553 18.0064 17.1142 16.2672 17.1142H6.36923C3.42341 17.1142 5.69052 23.7047 8.83429 23.7047H12.0252M21.4775 22.7125C18.9946 23.4079 16.3677 23.4079 13.8848 22.7125M21.2823 20.8117L27 7.25822M17.6812 20.4095C14.5232 20.4095 12.0252 21.3039 12.0252 22.2925V25.117C12.0252 26.1056 14.5232 27 17.6812 27C20.8391 27 23.3371 26.1056 23.3371 25.117V22.2925C23.3371 21.3039 20.8391 20.4095 17.6812 20.4095Z" stroke="black" stroke-miterlimit="10" stroke-linecap="round"/>
</svg>

<svg width="32" height="32" viewBox="0 0 32 32" fill="none" xmlns="http://www.w3.org/2000/svg">
  <symbol id="item" viewBox="0 0 32 32" stroke-width="1" fill="none">
    <path d="M24.438 5c-1.33 2.825-4.947 9.916-5.343 10.702-.58 1.153-1.089 1.412-2.828 1.412H6.37c-2.946 0-.678 6.59 2.465 6.59h3.191m9.452-.992c-2.482.696-5.11.696-7.592 0m7.397-1.9L27 7.258M17.681 20.41c-3.158 0-5.656.894-5.656 1.883v2.824c0 .989 2.498 1.883 5.656 1.883 3.158 0 5.656-.894 5.656-1.883v-2.825c0-.988-2.498-1.883-5.656-1.883Z" stroke="currentColor" stroke-miterlimit="10" stroke-linecap="round"/>
  </symbol>
</svg>
